!!!COM: Vivaldi, Antonio Lucio
!!!CDT: 1678/03/04-1741/08/28
!!!OPR: 12 sonatas for two violins and basso continuo
!!!OTL: Sonata in E major, op. @{OPS}, no. @{ONM} (@{SCT})
!!!OPS: 1
!!!ONM: 4
!!!OMV: 3. Allemanda
!!!SCT: RV 66
!!!SCA: Antonio Vivaldi: Thematisch-systematisches Verzeichnis seiner Werke (Ryom-Verzeichnis)
!!!OMD: Allegro
!!!key: E
**kern	**fb	**kern	**kern
*part3	*	*part2	*part1
*staff3	*	*staff2	*staff1
*ICstr&ICklav	*	*ICstr	*ICstr
*Icello&Icemba	*	*Ivioln	*Ivioln
*	*	*I#2	*I#1
*I"Violoncello\nContinuo	*	*I"Violin 2	*I"Violin 1
*I'bc	*	*I'v2	*I'v1
*>[A,A,B,B]	*>[A,A,B,B]	*>[A,A,B,B]	*>[A,A,B,B]
*>norep[A,B]	*>norep[A,B]	*>norep[A,B]	*>norep[A,B]
*>A	*>A	*>A	*>A
*clefF4	*	*clefG2	*clefG2
*k[f#c#g#d#]	*	*k[f#c#g#d#]	*k[f#c#g#d#]
*E:	*	*E:	*E:
*M4/4	*	*M4/4	*M4/4
*met(c)	*	*met(c)	*met(c)
*MM152	*	*MM152	*MM152
=1	=1	=1	=1
8E\L	.	4bb\	2r
8BB\	.	.	.
8F#y\	6	8r	.
8BB\J	.	8dd#y\	.
8G#y\L	6	4ee\	4bb\
8BB\	.	.	.
8F#y\	7	8r	8r
8BB\J	.	8ff#y\	8dd#y\
=2	=2	=2	=2
8G#y\L	6	4b\	4ee\
8BB\	.	.	.
8F#y\	7	8r	8r
8BB\J	.	8dd#y\	8ff#y\
8G#y\L	6	4ee\	4b\
8BB\	.	.	.
8F#y\	7	4r	8r
8BB\J	.	.	8dd#y\
=3	=3	=3	=3
8G#y\L	6	4r	4ee\
8F#y\	.	.	.
8G#y\	.	8ee\L	4r
8E\J	.	8ee\J	.
4.B\	.	8ee\L	2ff#y\
.	.	16dd#y\L	.
.	.	16cc#y\JJ	.
.	.	8dd#y\L	.
8BB/	.	8dd#y\J	.
=4	=4	=4	=4
8C#y\L	9	(8dd#y\L	2ee\
8D#y\	.	8cc#y\J)	.
8E\	6	8r	.
8C#y\J	.	8cc#y\	.
4.G#y\	5 4	8cc#y\L	2dd#y\
.	.	16b\L	.
.	.	16a\JJ	.
.	.	8b\L	.
8GG#y/	3	8b\J	.
=5	=5	=5	=5
8AA/L	9	(8b/L	2cc#y\
8BB/	.	8a/J)	.
8C#y/	6	8r	.
8AA/J	.	8aa\	.
8E\L	5 4	4aa\	4b\
8F#y\	.	.	.
8G#y\	6	4gg#y\	[4ee\
8E\J	.	.	.
!!LO:LB:g=original
=6	=6	=6	=6
8A\L	6 5	2ff#y\	4ee\]
8F#y\	.	.	.
8B\	.	.	4dd#y\t
8BB\J	.	.	.
8E/L	.	8ee\L	4ee\
8BB/	.	8gg#y\	.
8D#y/	6	8ff#y\	4r
8BB/J	.	8bb\J	.
=7	=7	=7	=7
8E/L	.	4gg#y\	8ee\L
8BB/	.	.	8gg#y\
8D#y/	6	4r	8ff#y\
8BB/J	.	.	8bb\J
8E/L	.	8ee\L	4gg#y\
8BB/	.	8gg#y\	.
8D#y/	6	8ff#y\	4r
8BB/J	.	8bb\J	.
=8	=8	=8	=8
8E\L	.	8gg#y\L	4.bb\
8F#y\	.	8ff#y\J	.
8G#y\	6	2ee\	.
8A#X\J	5	.	8ccc#y\
8B\L	5 4	.	4ff#y\
8c#y\	.	.	.
8d#y\	6	4dd#y\	[4bb\
8B\J	.	.	.
=9	=9	=9	=9
8e\L	6 5	2cc#y\	4bb\]
8c#y\	.	.	.
8f#y\	#	.	4aa#X\t
8F#y\J	.	.	.
2B\	.	2dd#y\	2bb\
=10:|!|:	=10:|!|:	=10:|!|:	=10:|!|:
*>B	*>B	*>B	*>B
8B\L	.	2r	4ff#y\
8F#y\	.	.	.
8c#y\	6#/	.	8r
8F#y\J	.	.	8a#X/
8d#y\L	6	4ff#y\	4b\
8F#y\	#	.	.
8c#y\	7	8r	8r
8F#y\J	#	8a#X/	8cc#y\
=11	=11	=11	=11
8d#y\L	6	4b\	4f#y/
8F#y\	#	.	.
8c#y\	7	8r	8r
8F#y\J	#	8cc#y\	8a#y/
8d#y\L	6	4f#y/	4b\
8F#y\	#	.	.
8c#y\	7	8r	4r
8F#y\J	#	8a#X/	.
!!LO:LB:g=original
=12	=12	=12	=12
8d#y\L	6	4b\	4r
8c#y\	.	.	.
8d#y\	.	4r	8bb\L
8B\J	.	.	8bb\J
4.f#y\	5 4	2cc#y\	8bb\L
.	.	.	16aa#X\L
.	.	.	16gg#y\JJ
.	X #	.	8aa#X\L
8F#y\	.	.	8aa#y\J
=13	=13	=13	=13
8G#y\L	9#/	2b\	(8aa#X\L
8A#X\	.	.	8gg#y\J)
8B\	6	.	8r
8G#y\J	.	.	8gg#y\
4.d#y\	5 4	2a/	8gg#y\L
.	.	.	16ff#y\L
.	.	.	16ee\JJ
.	X 3	.	8ff#y\L
8D#y\	.	.	8ff#y\J
=14	=14	=14	=14
8E\L	9	2g#y/	(8ff#y\L
8F#y\	.	.	8ee\J)
8G#y\	6	.	8r
8E\J	.	.	8ee\
8B\L	5 4	4f#y/	8ee\L
8BB\	X 3	.	8dd#y\J
8C#y\	6	8r	[4aa\
8D#y\J	6	8ff#y\	.
=15	=15	=15	=15
8E\L	5 4	4.b\	4aa\]
8F#y\	.	.	.
8G#y\	6	.	2gg#y\
8E\J	.	8ee\	.
8A\L	7	4.cc#y\	.
8G#y\J	.	.	.
8A\L	6	.	[4ff#y\
8F#y\J	.	8dd#y\	.
=16	=16	=16	=16
8G#y\L	7	4.b\	4ff#y\]
8F#y\	.	.	.
8G#y\	6	.	4ee\
8E\J	.	8gg#y\	.
8F#y\L	#	4ff#y\	8aa#X\L
8G#y\	#	.	8bb#X\J
8A\	5	4ee\	[4ccc#y\
8E\J	6	.	.
=17	=17	=17	=17
8F#y\L	6 5	2dd#y\	4ccc#y\]
8D#y\	.	.	.
8G#y\	#	.	4bb#X\t
8G#y\J	.	.	.
8c#y\L	.	4ee\	2ccc#y\
8B\	.	.	.
8A\	.	8r	.
8G#y\J	.	8bb\	.
!!LO:LB:g=original
=18	=18	=18	=18
8A\L	.	4.cc#y\	8r
8G#y\	.	.	8ee\
8F#y\	6	.	8aa\L
8BB\J	7	8ff#y\	8aa\J
8C#y\L	6 4	8ff#y\L	8aa\L
8BB\	.	8ee\J	8gg#y\J
8AA\	6	8r	[4ccc#y\
8A\J	.	8ff#y\	.
=19	=19	=19	=19
8B\L	9	4dd#y\	8ccc#y\L]
8A\	.	.	8ff#y\J
8G#y\	6	8r	2bb\
8E\J	.	8gg#y\	.
8F#y/L	5 4	2cc#y\	.
8E/	.	.	.
8F#y/	#	.	4aa#X\t
8FF#y/J	.	.	.
=20	=20	=20	=20
8BB\L	.	4b\	4bb\
16B\L	.	.	.
16A\JJ	.	.	.
8G#y\L	6	4r	4r
8F#y\J	.	.	.
8E\L	.	4bb\	2r
8BB\	.	.	.
8F#y\	6	8r	.
8BB\J	.	8dd#y\	.
=21	=21	=21	=21
8G#y\L	6	4ee\	4bb\
8BB\	.	.	.
8F#y\	7	8r	8r
8BB\J	.	8ff#y\	8dd#y\
8G#y\L	6	4b\	4ee\
8BB\	.	.	.
8F#y\	7	8r	8r
8BB\J	.	8dd#y\	8ff#y\
=22	=22	=22	=22
8G#y\L	6	4ee\	4b\
8BB\	.	.	.
8F#y\	7	4r	8r
8BB\J	.	.	8dd#y\
8G#y\L	6	4r	4ee\
8F#y\	.	.	.
8G#y\	.	8ee\L	4r
8E\J	.	8ee\J	.
=23	=23	=23	=23
4.B\	5 4	8ee\L	2ff#y\
.	.	16dd#y\L	.
.	.	16cc#y\JJ	.
.	X 3	8dd#y\L	.
8BB/	.	8dd#y\J	.
8C#y\L	9	(8dd#y\L	2ee\
8D#y\	.	8cc#y\J)	.
8E\	6	8r	.
8C#y\J	.	8cc#y\	.
!!LO:PB:g=original
=24	=24	=24	=24
4.G#y\	5 4	8cc#y\L	2dd#y\
.	.	16b\L	.
.	.	16a\JJ	.
.	X 3	8b\L	.
8GG#y/	.	8b\J	.
8AA/L	9	(8b/L	2cc#y\
8BB/	.	8a/J)	.
8C#y/	6	8r	.
8AA/J	.	8aa\	.
=25	=25	=25	=25
8E\L	5 4	4aa\	4b\
8F#y\	.	.	.
8G#y\	6	4gg#y\	2ee\
8E\J	.	.	.
8A\L	6 5	2ff#y\	.
8F#y\	.	.	.
8B\	.	.	4dd#y\t
8BB\J	.	.	.
=26	=26	=26	=26
8E/L	.	8ee\L	4ee\
8BB/	.	8gg#y\	.
8D#y/	6	8ff#y\	4r
8BB/J	.	8bb\J	.
8E/L	.	4gg#y\	8ee\L
8BB/	.	.	8gg#y\
8D#y/	6	4r	8ff#y\
8BB/J	.	.	8bb\J
=27	=27	=27	=27
8E/L	.	8ee\L	4gg#y\
8BB/	.	8gg#y\	.
8D#y/	6	8ff#y\	4r
8BB/J	.	8bb\J	.
8E\L	.	8gg#y\L	4.bb\
8F#y\	.	8ff#y\J	.
8G#y\	6	[4ee\	.
8E\J	6	.	8ccc#y\
=28	=28	=28	=28
8A\L	6 5	4ee\]	4.ff#y\
8F#y\	.	.	.
8B\	.	4dd#y\	.
8BB\J	.	.	8bb\
8E\L	.	4ee\	8gg#y\L
8F#y\	.	.	8ff#y\J
8G#y\	6	8b\L	[4ee\
8E\J	6	8cc#y\J	.
=29	=29	=29	=29
8A\L	6 5	4.f#y/	4ee\]
8F#y\	.	.	.
8B\	.	.	4dd#y\t
8BB\J	.	8b\	.
2EE/	.	2g#y/	2ee\
=:|!	=:|!	=:|!	=:|!
*-	*-	*-	*-
!!!SMS: RV 66 / Estienne Roger (No. 363), Amsterdam [facs.]
!!!ENC: Fran Bennion   rev. 05/12/21 E Correia
!!!END: 2004/10/02
!!!ONB: Converted from MuseData with musedata2hum on Sat May 11 12:01:54 2024
!!!YEM: (C) 2004, 2019 Center for Computer Assisted Research in the Humanities
!!!system-decoration: [(s1,s2,s3)]
!!!URL-info: https://wiki.ccarh.org/wiki/MuseData:_Antonio_Vivaldi#Op._1:_Suonate_da_camera_a_tr.C3.A8.2C_due_violini_e_violone_o_cembalo Information about Vivaldi Op. 1 on the CCARH wiki
!!!URL-pdf: https://pdf.musedata.org/vivaldi-op01-no04.pdf#page=3 MuseData edition
!!!URL-pdf: https://s9.imslp.org/files/imglnks/usimg/1/18/IMSLP280399-PMLP10351-Vivaldi_Sonatas_Op_1_-_Violino_Primo.pdf#page=7 Violino primo part, Amsterdam: Estienne Roger, n.d.(ca.1723). Plate 363.
!!!URL-pdf: https://s9.imslp.org/files/imglnks/usimg/d/d5/IMSLP280400-PMLP10351-Vivaldi_Sonatas_Op_1_-_Violino_Secondo.pdf#page=6 Violino secondo part, Amsterdam: Estienne Roger, n.d.(ca.1723). Plate 363.
!!!URL-pdf: https://s9.imslp.org/files/imglnks/usimg/8/89/IMSLP280401-PMLP10351-Vivaldi_Sonatas_Op_1_-_Organo_e_Violoncello.pdf#page=6 Organo e Violoncello parts, Amsterdam: Estienne Roger, n.d.(ca.1723). Plate 363.
!!!URL-youtube: https://www.youtube.com/watch?v=P5HHPe_W6Uo&t=3998s L'Arte dell'Arco
!!!title: @{OTL}, mov. @{OMV}
!!!filter-vcross: vcross
!!!EEV: 2024/05/11
!!!source-file: https://bitbucket.org/musedata/vivaldi/src/master/roger/op1/no04/stage2/03/01
!!!source-file: https://bitbucket.org/musedata/vivaldi/src/master/roger/op1/no04/stage2/03/02
!!!source-file: https://bitbucket.org/musedata/vivaldi/src/master/roger/op1/no04/stage2/03/03
!!!source-file: https://bitbucket.org/musedata/vivaldi/src/master/roger/op1/no04/stage2/03/04
